Icons/rename_me_google_settings.svg

<svg viewBox="0 0 48 48" xmlns:xlink="http://www.w3.org/1999/xlink">
 <defs>
  <linearGradient id="0">
   <stop stop-opacity="0"/>
   <stop offset="1"/>
  </linearGradient>
  <linearGradient xlink:href="#0" id="1" gradientUnits="userSpaceOnUse" gradientTransform="translate(4e-7,-48)" y1="47" x2="0" y2="1"/>
  <clipPath id="2">
   <g transform="translate(0,-1004.3622)">
    <rect rx="4" y="1005.36" x="1" height="46" width="46" fill="#1890d0"/>
   </g>
  </clipPath>
  <clipPath id="3">
   <g transform="translate(0,-1004.3622)">
    <rect rx="4" y="1005.36" x="1" height="46" width="46" fill="#1890d0"/>
   </g>
  </clipPath>
 </defs>
 <g>
  <g transform="translate(0,-1004.3622)">
   <path d="m 5,1006.3622 c -2.216,0 -4,1.784 -4,4 l 0,37.25 c 0,2.216 1.784,4 4,4 l 38,0 c 2.216,0 4,-1.784 4,-4 l 0,-37.25 c 0,-2.216 -1.784,-4 -4,-4 l -38,0 z m -4,41.5 0,0.5 c 0,2.216 1.784,4 4,4 l 38,0 c 2.216,0 4,-1.784 4,-4 l 0,-0.5 c 0,2.216 -1.784,4 -4,4 l -38,0 c -2.216,0 -4,-1.784 -4,-4 z" opacity="0.02"/>
   <path d="m 1,1047.6122 0,0.25 c 0,2.216 1.784,4 4,4 l 38,0 c 2.216,0 4,-1.784 4,-4 l 0,-0.25 c 0,2.216 -1.784,4 -4,4 l -38,0 c -2.216,0 -4,-1.784 -4,-4 z" opacity="0.05"/>
   <rect width="46" height="46" x="1" y="1005.61" rx="4" opacity="0.1"/>
  </g>
 </g>
 <g>
  <g transform="translate(0,-1004.3622)">
   <rect rx="4" y="1005.36" x="1" height="46" width="46" fill="#999999"/>
  </g>
 </g>
 <g>
  <rect transform="scale(1,-1)" width="46" height="46" x="1" y="-46.998" rx="4" opacity="0.1" fill="url(#1)"/>
 </g>
 <g>
  <g clip-path="url(#2)">
   <g opacity="0.1">
    <g>
     <path d="M 27.960938 12.226562 C 28.152344 12.386719 28.375 12.605469 28.632812 12.875 C 28.890625 13.125 29.136719 13.445312 29.371094 13.832031 C 29.605469 14.195312 29.808594 14.628906 29.980469 15.128906 C 30.152344 15.628906 30.238281 16.199219 30.238281 16.835938 C 30.238281 17.472656 30.160156 18.027344 30.011719 18.507812 C 29.863281 18.984375 29.660156 19.417969 29.402344 19.804688 C 29.144531 20.167969 28.859375 20.507812 28.535156 20.828125 C 28.214844 21.121094 27.886719 21.40625 27.542969 21.679688 C 27.328125 21.90625 27.125 22.144531 26.933594 22.394531 C 26.742188 22.648438 26.644531 22.964844 26.644531 23.351562 C 26.644531 23.738281 26.742188 24.046875 26.933594 24.273438 C 27.125 24.476562 27.308594 24.660156 27.480469 24.820312 L 28.632812 25.773438 C 28.976562 26.09375 29.304688 26.410156 29.628906 26.730469 C 29.96875 27.046875 30.257812 27.390625 30.492188 27.753906 C 30.75 28.117188 30.953125 28.527344 31.101562 28.980469 C 31.25 29.4375 31.328125 29.960938 31.328125 30.550781 C 31.328125 31.347656 31.144531 32.132812 30.78125 32.90625 C 30.417969 33.679688 29.882812 34.363281 29.179688 34.953125 C 28.472656 35.566406 27.585938 36.054688 26.515625 36.421875 C 25.46875 36.808594 24.261719 37 22.894531 37 C 21.738281 37 20.722656 36.863281 19.847656 36.589844 C 18.992188 36.316406 18.277344 35.953125 17.699219 35.5 C 17.121094 35.042969 16.695312 34.519531 16.417969 33.929688 C 16.140625 33.359375 16 32.757812 16 32.121094 C 16 31.507812 16.183594 30.800781 16.546875 30.003906 C 16.886719 29.230469 17.527344 28.550781 18.46875 27.957031 C 18.960938 27.640625 19.484375 27.378906 20.039062 27.171875 C 20.617188 26.992188 21.183594 26.84375 21.738281 26.730469 C 22.296875 26.617188 22.820312 26.535156 23.3125 26.492188 C 23.800781 26.445312 24.230469 26.410156 24.59375 26.386719 C 24.359375 26.070312 24.132812 25.738281 23.917969 25.398438 C 23.726562 25.035156 23.632812 24.589844 23.632812 24.066406 C 23.632812 23.773438 23.664062 23.535156 23.726562 23.351562 C 23.792969 23.148438 23.867188 22.941406 23.953125 22.738281 C 23.78125 22.761719 23.609375 22.78125 23.4375 22.804688 C 23.269531 22.804688 23.097656 22.804688 22.925781 22.804688 C 22.070312 22.804688 21.3125 22.65625 20.648438 22.363281 C 19.988281 22.042969 19.429688 21.632812 18.980469 21.132812 C 18.53125 20.632812 18.191406 20.066406 17.957031 19.429688 C 17.722656 18.769531 17.601562 18.109375 17.601562 17.449219 C 17.601562 16.652344 17.773438 15.855469 18.117188 15.058594 C 18.457031 14.242188 18.972656 13.511719 19.65625 12.875 C 20.574219 12.082031 21.535156 11.570312 22.542969 11.339844 C 23.566406 11.113281 24.519531 11 25.394531 11 L 32 11 L 29.949219 12.226562 L 27.960938 12.226562 M 24.433594 21.851562 C 24.839844 21.851562 25.234375 21.757812 25.621094 21.578125 C 26.023438 21.394531 26.355469 21.167969 26.613281 20.894531 C 26.976562 20.507812 27.199219 20.074219 27.285156 19.597656 C 27.371094 19.121094 27.414062 18.722656 27.414062 18.402344 C 27.414062 17.789062 27.328125 17.117188 27.160156 16.390625 C 26.988281 15.664062 26.730469 14.980469 26.390625 14.34375 C 26.046875 13.707031 25.621094 13.183594 25.105469 12.773438 C 24.613281 12.34375 24.039062 12.125 23.375 12.125 C 22.945312 12.125 22.53125 12.226562 22.125 12.433594 C 21.71875 12.636719 21.386719 12.910156 21.128906 13.253906 C 20.851562 13.617188 20.660156 14.015625 20.554688 14.445312 C 20.46875 14.878906 20.425781 15.320312 20.425781 15.777344 C 20.425781 16.34375 20.5 16.984375 20.648438 17.6875 C 20.820312 18.394531 21.066406 19.050781 21.386719 19.667969 C 21.730469 20.28125 22.144531 20.804688 22.636719 21.234375 C 23.148438 21.644531 23.75 21.851562 24.433594 21.851562 M 29.179688 31.882812 C 29.179688 31.449219 29.105469 31.050781 28.953125 30.6875 C 28.824219 30.347656 28.621094 30.003906 28.34375 29.664062 C 28.066406 29.324219 27.703125 28.96875 27.253906 28.605469 C 26.804688 28.242188 26.28125 27.832031 25.683594 27.378906 C 25.554688 27.355469 25.4375 27.34375 25.332031 27.34375 C 25.246094 27.34375 25.117188 27.34375 24.945312 27.34375 C 24.882812 27.34375 24.730469 27.34375 24.496094 27.34375 C 24.261719 27.367188 23.984375 27.390625 23.664062 27.410156 C 23.34375 27.457031 23 27.515625 22.636719 27.582031 C 22.273438 27.671875 21.921875 27.777344 21.578125 27.890625 C 21.40625 27.957031 21.164062 28.058594 20.839844 28.195312 C 20.542969 28.355469 20.242188 28.570312 19.945312 28.84375 C 19.644531 29.117188 19.378906 29.460938 19.140625 29.867188 C 18.929688 30.277344 18.820312 30.789062 18.820312 31.402344 C 18.820312 32.632812 19.324219 33.632812 20.328125 34.40625 C 21.355469 35.179688 22.734375 35.566406 24.464844 35.566406 C 26.003906 35.566406 27.167969 35.214844 27.960938 34.507812 C 28.773438 33.828125 29.179688 32.949219 29.179688 31.882812 "/>
    </g>
   </g>
  </g>
 </g>
 <g>
  <g clip-path="url(#3)">
   <g transform="translate(0,-1)">
    <g>
     <path d="M 27.960938 12.226562 C 28.152344 12.386719 28.375 12.605469 28.632812 12.875 C 28.890625 13.125 29.136719 13.445312 29.371094 13.832031 C 29.605469 14.195312 29.808594 14.628906 29.980469 15.128906 C 30.152344 15.628906 30.238281 16.199219 30.238281 16.835938 C 30.238281 17.472656 30.160156 18.027344 30.011719 18.507812 C 29.863281 18.984375 29.660156 19.417969 29.402344 19.804688 C 29.144531 20.167969 28.859375 20.507812 28.535156 20.828125 C 28.214844 21.121094 27.886719 21.40625 27.542969 21.679688 C 27.328125 21.90625 27.125 22.144531 26.933594 22.394531 C 26.742188 22.648438 26.644531 22.964844 26.644531 23.351562 C 26.644531 23.738281 26.742188 24.046875 26.933594 24.273438 C 27.125 24.476562 27.308594 24.660156 27.480469 24.820312 L 28.632812 25.773438 C 28.976562 26.09375 29.304688 26.410156 29.628906 26.730469 C 29.96875 27.046875 30.257812 27.390625 30.492188 27.753906 C 30.75 28.117188 30.953125 28.527344 31.101562 28.980469 C 31.25 29.4375 31.328125 29.960938 31.328125 30.550781 C 31.328125 31.347656 31.144531 32.132812 30.78125 32.90625 C 30.417969 33.679688 29.882812 34.363281 29.179688 34.953125 C 28.472656 35.566406 27.585938 36.054688 26.515625 36.421875 C 25.46875 36.808594 24.261719 37 22.894531 37 C 21.738281 37 20.722656 36.863281 19.847656 36.589844 C 18.992188 36.316406 18.277344 35.953125 17.699219 35.5 C 17.121094 35.042969 16.695312 34.519531 16.417969 33.929688 C 16.140625 33.359375 16 32.757812 16 32.121094 C 16 31.507812 16.183594 30.800781 16.546875 30.003906 C 16.886719 29.230469 17.527344 28.550781 18.46875 27.957031 C 18.960938 27.640625 19.484375 27.378906 20.039062 27.171875 C 20.617188 26.992188 21.183594 26.84375 21.738281 26.730469 C 22.296875 26.617188 22.820312 26.535156 23.3125 26.492188 C 23.800781 26.445312 24.230469 26.410156 24.59375 26.386719 C 24.359375 26.070312 24.132812 25.738281 23.917969 25.398438 C 23.726562 25.035156 23.632812 24.589844 23.632812 24.066406 C 23.632812 23.773438 23.664062 23.535156 23.726562 23.351562 C 23.792969 23.148438 23.867188 22.941406 23.953125 22.738281 C 23.78125 22.761719 23.609375 22.78125 23.4375 22.804688 C 23.269531 22.804688 23.097656 22.804688 22.925781 22.804688 C 22.070312 22.804688 21.3125 22.65625 20.648438 22.363281 C 19.988281 22.042969 19.429688 21.632812 18.980469 21.132812 C 18.53125 20.632812 18.191406 20.066406 17.957031 19.429688 C 17.722656 18.769531 17.601562 18.109375 17.601562 17.449219 C 17.601562 16.652344 17.773438 15.855469 18.117188 15.058594 C 18.457031 14.242188 18.972656 13.511719 19.65625 12.875 C 20.574219 12.082031 21.535156 11.570312 22.542969 11.339844 C 23.566406 11.113281 24.519531 11 25.394531 11 L 32 11 L 29.949219 12.226562 L 27.960938 12.226562 M 24.433594 21.851562 C 24.839844 21.851562 25.234375 21.757812 25.621094 21.578125 C 26.023438 21.394531 26.355469 21.167969 26.613281 20.894531 C 26.976562 20.507812 27.199219 20.074219 27.285156 19.597656 C 27.371094 19.121094 27.414062 18.722656 27.414062 18.402344 C 27.414062 17.789062 27.328125 17.117188 27.160156 16.390625 C 26.988281 15.664062 26.730469 14.980469 26.390625 14.34375 C 26.046875 13.707031 25.621094 13.183594 25.105469 12.773438 C 24.613281 12.34375 24.039062 12.125 23.375 12.125 C 22.945312 12.125 22.53125 12.226562 22.125 12.433594 C 21.71875 12.636719 21.386719 12.910156 21.128906 13.253906 C 20.851562 13.617188 20.660156 14.015625 20.554688 14.445312 C 20.46875 14.878906 20.425781 15.320312 20.425781 15.777344 C 20.425781 16.34375 20.5 16.984375 20.648438 17.6875 C 20.820312 18.394531 21.066406 19.050781 21.386719 19.667969 C 21.730469 20.28125 22.144531 20.804688 22.636719 21.234375 C 23.148438 21.644531 23.75 21.851562 24.433594 21.851562 M 29.179688 31.882812 C 29.179688 31.449219 29.105469 31.050781 28.953125 30.6875 C 28.824219 30.347656 28.621094 30.003906 28.34375 29.664062 C 28.066406 29.324219 27.703125 28.96875 27.253906 28.605469 C 26.804688 28.242188 26.28125 27.832031 25.683594 27.378906 C 25.554688 27.355469 25.4375 27.34375 25.332031 27.34375 C 25.246094 27.34375 25.117188 27.34375 24.945312 27.34375 C 24.882812 27.34375 24.730469 27.34375 24.496094 27.34375 C 24.261719 27.367188 23.984375 27.390625 23.664062 27.410156 C 23.34375 27.457031 23 27.515625 22.636719 27.582031 C 22.273438 27.671875 21.921875 27.777344 21.578125 27.890625 C 21.40625 27.957031 21.164062 28.058594 20.839844 28.195312 C 20.542969 28.355469 20.242188 28.570312 19.945312 28.84375 C 19.644531 29.117188 19.378906 29.460938 19.140625 29.867188 C 18.929688 30.277344 18.820312 30.789062 18.820312 31.402344 C 18.820312 32.632812 19.324219 33.632812 20.328125 34.40625 C 21.355469 35.179688 22.734375 35.566406 24.464844 35.566406 C 26.003906 35.566406 27.167969 35.214844 27.960938 34.507812 C 28.773438 33.828125 29.179688 32.949219 29.179688 31.882812 " fill="#ffffff"/>
    </g>
   </g>
  </g>
 </g>
 <g>
  <g transform="translate(0,-1004.3622)">
   <path d="m 1,1043.3622 0,4 c 0,2.216 1.784,4 4,4 l 38,0 c 2.216,0 4,-1.784 4,-4 l 0,-4 c 0,2.216 -1.784,4 -4,4 l -38,0 c -2.216,0 -4,-1.784 -4,-4 z" opacity="0.1"/>
  </g>
 </g>
</svg>

<svg viewBox="0 0 48 48"><defs><linearGradient id="linearGradient3764" x1="1" x2="47" gradientUnits="userSpaceOnUse" gradientTransform="translate(-48.000001,0.00221467)"><stop stop-color="#8f8f8f" stop-opacity="1"/><stop offset="1" stop-color="#999" stop-opacity="1"/></linearGradient><clipPath id="clipPath-461352958"><g transform="translate(0,-1004.3622)"><rect rx="4" y="1005.36" x="1" height="46" width="46" fill="#1890d0"/></g></clipPath><clipPath id="clipPath-475728459"><g transform="translate(0,-1004.3622)"><rect rx="4" y="1005.36" x="1" height="46" width="46" fill="#1890d0"/></g></clipPath></defs><g><path d="m 1 43 l 0 0.25 c 0 2.216 1.784 4 4 4 l 38 0 c 2.216 0 4 -1.784 4 -4 l 0 -0.25 c 0 2.216 -1.784 4 -4 4 l -38 0 c -2.216 0 -4 -1.784 -4 -4 z m 0 0.5 l 0 0.5 c 0 2.216 1.784 4 4 4 l 38 0 c 2.216 0 4 -1.784 4 -4 l 0 -0.5 c 0 2.216 -1.784 4 -4 4 l -38 0 c -2.216 0 -4 -1.784 -4 -4 z" opacity="0.02"/><path d="m 1 43.25 l 0 0.25 c 0 2.216 1.784 4 4 4 l 38 0 c 2.216 0 4 -1.784 4 -4 l 0 -0.25 c 0 2.216 -1.784 4 -4 4 l -38 0 c -2.216 0 -4 -1.784 -4 -4 z" opacity="0.05"/><path d="m 1 43 l 0 0.25 c 0 2.216 1.784 4 4 4 l 38 0 c 2.216 0 4 -1.784 4 -4 l 0 -0.25 c 0 2.216 -1.784 4 -4 4 l -38 0 c -2.216 0 -4 -1.784 -4 -4 z" opacity="0.1"/></g><g><rect width="46" height="46" x="-47" y="1" rx="4" transform="matrix(0,-1,1,0,0,0)" fill="url(#linearGradient3764)" fill-opacity="1"/></g><g><g clip-path="url(#clipPath-461352958)"><g opacity="0.1"><!-- color: #999999 --><g><path d="m 27.961 12.227 c 0.191 0.16 0.414 0.379 0.672 0.648 c 0.258 0.25 0.504 0.57 0.738 0.957 c 0.234 0.363 0.438 0.797 0.609 1.297 c 0.172 0.5 0.258 1.07 0.258 1.707 c 0 0.637 -0.078 1.191 -0.227 1.672 c -0.148 0.477 -0.352 0.91 -0.609 1.297 c -0.258 0.363 -0.543 0.703 -0.867 1.023 c -0.32 0.293 -0.648 0.578 -0.992 0.852 c -0.215 0.227 -0.418 0.465 -0.609 0.715 c -0.191 0.254 -0.289 0.57 -0.289 0.957 c 0 0.387 0.098 0.695 0.289 0.922 c 0.191 0.203 0.375 0.387 0.547 0.547 l 1.152 0.953 c 0.344 0.32 0.672 0.637 0.996 0.957 c 0.34 0.316 0.629 0.66 0.863 1.023 c 0.258 0.363 0.461 0.773 0.609 1.227 c 0.148 0.457 0.227 0.98 0.227 1.57 c 0 0.797 -0.184 1.582 -0.547 2.355 c -0.363 0.773 -0.898 1.457 -1.602 2.047 c -0.707 0.613 -1.594 1.102 -2.664 1.469 c -1.047 0.387 -2.254 0.578 -3.621 0.578 c -1.156 0 -2.172 -0.137 -3.047 -0.41 c -0.855 -0.273 -1.57 -0.637 -2.148 -1.09 c -0.578 -0.457 -1 -0.98 -1.281 -1.57 c -0.277 -0.57 -0.418 -1.172 -0.418 -1.809 c 0 -0.613 0.184 -1.32 0.547 -2.117 c 0.34 -0.773 0.98 -1.453 1.922 -2.047 c 0.492 -0.316 1.016 -0.578 1.57 -0.785 c 0.578 -0.18 1.145 -0.328 1.699 -0.441 c 0.559 -0.113 1.082 -0.195 1.574 -0.238 c 0.488 -0.047 0.918 -0.082 1.281 -0.105 c -0.234 -0.316 -0.461 -0.648 -0.676 -0.988 c -0.191 -0.363 -0.285 -0.809 -0.285 -1.332 c 0 -0.293 0.031 -0.531 0.094 -0.715 c 0.066 -0.203 0.141 -0.41 0.227 -0.613 c -0.172 0.023 -0.344 0.043 -0.516 0.066 c -0.168 0 -0.34 0 -0.512 0 c -0.855 0 -1.613 -0.148 -2.277 -0.441 c -0.66 -0.32 -1.219 -0.73 -1.668 -1.23 c -0.449 -0.5 -0.789 -1.066 -1.023 -1.703 c -0.234 -0.66 -0.355 -1.32 -0.355 -1.98 c 0 -0.797 0.172 -1.594 0.516 -2.391 c 0.34 -0.816 0.855 -1.547 1.539 -2.184 c 0.918 -0.793 1.879 -1.305 2.887 -1.535 c 1.023 -0.227 1.977 -0.34 2.852 -0.34 l 6.605 0 l -2.051 1.227 l -1.988 0 m -3.527 9.625 c 0.406 0 0.801 -0.094 1.188 -0.273 c 0.402 -0.184 0.734 -0.41 0.992 -0.684 c 0.363 -0.387 0.586 -0.82 0.672 -1.297 c 0.086 -0.477 0.129 -0.875 0.129 -1.195 c 0 -0.613 -0.086 -1.285 -0.254 -2.01 c -0.172 -0.727 -0.43 -1.41 -0.77 -2.047 c -0.344 -0.637 -0.77 -1.16 -1.285 -1.57 c -0.492 -0.43 -1.066 -0.648 -1.73 -0.648 c -0.43 0 -0.844 0.102 -1.25 0.309 c -0.406 0.203 -0.738 0.477 -0.996 0.82 c -0.277 0.363 -0.469 0.762 -0.574 1.191 c -0.086 0.434 -0.129 0.875 -0.129 1.332 c 0 0.566 0.074 1.207 0.223 1.91 c 0.172 0.707 0.418 1.363 0.738 1.98 c 0.344 0.613 0.758 1.137 1.25 1.566 c 0.512 0.41 1.113 0.617 1.797 0.617 m 4.746 10.03 c 0 -0.434 -0.074 -0.832 -0.227 -1.195 c -0.129 -0.34 -0.332 -0.684 -0.609 -1.023 c -0.277 -0.34 -0.641 -0.695 -1.09 -1.059 c -0.449 -0.363 -0.973 -0.773 -1.57 -1.227 c -0.129 -0.023 -0.246 -0.035 -0.352 -0.035 c -0.086 0 -0.215 0 -0.387 0 c -0.063 0 -0.215 0 -0.449 0 c -0.234 0.023 -0.512 0.047 -0.832 0.066 c -0.32 0.047 -0.664 0.105 -1.027 0.172 c -0.363 0.09 -0.715 0.195 -1.059 0.309 c -0.172 0.066 -0.414 0.168 -0.738 0.305 c -0.297 0.16 -0.598 0.375 -0.895 0.648 c -0.301 0.273 -0.566 0.617 -0.805 1.023 c -0.211 0.41 -0.32 0.922 -0.32 1.535 c 0 1.23 0.504 2.23 1.508 3 c 1.027 0.773 2.406 1.16 4.137 1.16 c 1.539 0 2.703 -0.352 3.496 -1.059 c 0.813 -0.68 1.219 -1.559 1.219 -2.625" fill="#000"/></g></g></g></g><g><g clip-path="url(#clipPath-475728459)"><g transform="translate(0,-1)"><!-- color: #999999 --><g><path d="m 27.961 12.227 c 0.191 0.16 0.414 0.379 0.672 0.648 c 0.258 0.25 0.504 0.57 0.738 0.957 c 0.234 0.363 0.438 0.797 0.609 1.297 c 0.172 0.5 0.258 1.07 0.258 1.707 c 0 0.637 -0.078 1.191 -0.227 1.672 c -0.148 0.477 -0.352 0.91 -0.609 1.297 c -0.258 0.363 -0.543 0.703 -0.867 1.023 c -0.32 0.293 -0.648 0.578 -0.992 0.852 c -0.215 0.227 -0.418 0.465 -0.609 0.715 c -0.191 0.254 -0.289 0.57 -0.289 0.957 c 0 0.387 0.098 0.695 0.289 0.922 c 0.191 0.203 0.375 0.387 0.547 0.547 l 1.152 0.953 c 0.344 0.32 0.672 0.637 0.996 0.957 c 0.34 0.316 0.629 0.66 0.863 1.023 c 0.258 0.363 0.461 0.773 0.609 1.227 c 0.148 0.457 0.227 0.98 0.227 1.57 c 0 0.797 -0.184 1.582 -0.547 2.355 c -0.363 0.773 -0.898 1.457 -1.602 2.047 c -0.707 0.613 -1.594 1.102 -2.664 1.469 c -1.047 0.387 -2.254 0.578 -3.621 0.578 c -1.156 0 -2.172 -0.137 -3.047 -0.41 c -0.855 -0.273 -1.57 -0.637 -2.148 -1.09 c -0.578 -0.457 -1 -0.98 -1.281 -1.57 c -0.277 -0.57 -0.418 -1.172 -0.418 -1.809 c 0 -0.613 0.184 -1.32 0.547 -2.117 c 0.34 -0.773 0.98 -1.453 1.922 -2.047 c 0.492 -0.316 1.016 -0.578 1.57 -0.785 c 0.578 -0.18 1.145 -0.328 1.699 -0.441 c 0.559 -0.113 1.082 -0.195 1.574 -0.238 c 0.488 -0.047 0.918 -0.082 1.281 -0.105 c -0.234 -0.316 -0.461 -0.648 -0.676 -0.988 c -0.191 -0.363 -0.285 -0.809 -0.285 -1.332 c 0 -0.293 0.031 -0.531 0.094 -0.715 c 0.066 -0.203 0.141 -0.41 0.227 -0.613 c -0.172 0.023 -0.344 0.043 -0.516 0.066 c -0.168 0 -0.34 0 -0.512 0 c -0.855 0 -1.613 -0.148 -2.277 -0.441 c -0.66 -0.32 -1.219 -0.73 -1.668 -1.23 c -0.449 -0.5 -0.789 -1.066 -1.023 -1.703 c -0.234 -0.66 -0.355 -1.32 -0.355 -1.98 c 0 -0.797 0.172 -1.594 0.516 -2.391 c 0.34 -0.816 0.855 -1.547 1.539 -2.184 c 0.918 -0.793 1.879 -1.305 2.887 -1.535 c 1.023 -0.227 1.977 -0.34 2.852 -0.34 l 6.605 0 l -2.051 1.227 l -1.988 0 m -3.527 9.625 c 0.406 0 0.801 -0.094 1.188 -0.273 c 0.402 -0.184 0.734 -0.41 0.992 -0.684 c 0.363 -0.387 0.586 -0.82 0.672 -1.297 c 0.086 -0.477 0.129 -0.875 0.129 -1.195 c 0 -0.613 -0.086 -1.285 -0.254 -2.01 c -0.172 -0.727 -0.43 -1.41 -0.77 -2.047 c -0.344 -0.637 -0.77 -1.16 -1.285 -1.57 c -0.492 -0.43 -1.066 -0.648 -1.73 -0.648 c -0.43 0 -0.844 0.102 -1.25 0.309 c -0.406 0.203 -0.738 0.477 -0.996 0.82 c -0.277 0.363 -0.469 0.762 -0.574 1.191 c -0.086 0.434 -0.129 0.875 -0.129 1.332 c 0 0.566 0.074 1.207 0.223 1.91 c 0.172 0.707 0.418 1.363 0.738 1.98 c 0.344 0.613 0.758 1.137 1.25 1.566 c 0.512 0.41 1.113 0.617 1.797 0.617 m 4.746 10.03 c 0 -0.434 -0.074 -0.832 -0.227 -1.195 c -0.129 -0.34 -0.332 -0.684 -0.609 -1.023 c -0.277 -0.34 -0.641 -0.695 -1.09 -1.059 c -0.449 -0.363 -0.973 -0.773 -1.57 -1.227 c -0.129 -0.023 -0.246 -0.035 -0.352 -0.035 c -0.086 0 -0.215 0 -0.387 0 c -0.063 0 -0.215 0 -0.449 0 c -0.234 0.023 -0.512 0.047 -0.832 0.066 c -0.32 0.047 -0.664 0.105 -1.027 0.172 c -0.363 0.09 -0.715 0.195 -1.059 0.309 c -0.172 0.066 -0.414 0.168 -0.738 0.305 c -0.297 0.16 -0.598 0.375 -0.895 0.648 c -0.301 0.273 -0.566 0.617 -0.805 1.023 c -0.211 0.41 -0.32 0.922 -0.32 1.535 c 0 1.23 0.504 2.23 1.508 3 c 1.027 0.773 2.406 1.16 4.137 1.16 c 1.539 0 2.703 -0.352 3.496 -1.059 c 0.813 -0.68 1.219 -1.559 1.219 -2.625" fill="#fff"/></g></g></g></g><g><g transform="translate(0,-1004.3622)"><path d="m 1 1043.36 0 4 c 0 2.216 1.784 4 4 4 l 38 0 c 2.216 0 4 -1.784 4 -4 l 0 -4 c 0 2.216 -1.784 4 -4 4 l -38 0 c -2.216 0 -4 -1.784 -4 -4 z" opacity="0.1"/></g></g></svg>
